resources/dark/expand.svg

<svg fill="none" height="16" viewBox="0 0 16 16" width="16" xmlns="http://www.w3.org/2000/svg" xmlns:xlink="http://www.w3.org/1999/xlink"><linearGradient id="a" gradientUnits="userSpaceOnUse" x1="8" x2="8" y1="2" y2="14"><stop offset="0" stop-color="#5e7df7"/><stop offset="1" stop-color="#a468fc"/></linearGradient><path d="m2 5.96429v-3.32143c0-.35625.28661-.64286.64286-.64286h3.32143c.17678 0 .32142.14464.32142.32143v1.07143c0 .17678-.14464.32143-.32142.32143h-2.25v2.25c0 .17678-.14465.32142-.32143.32142h-1.07143c-.17679 0-.32143-.14464-.32143-.32142zm7.71429-3.64286v1.07143c0 .17678.14464.32143.32141.32143h2.25v2.25c0 .17678.1447.32142.3214.32142h1.0715c.1768 0 .3214-.14464.3214-.32142v-3.32143c0-.35625-.2866-.64286-.6429-.64286h-3.3214c-.17677 0-.32141.14464-.32141.32143zm3.96431 7.39286h-1.0715c-.1767 0-.3214.14464-.3214.32141v2.25h-2.25c-.17677 0-.32141.1447-.32141.3214v1.0715c0 .1768.14464.3214.32141.3214h3.3214c.3563 0 .6429-.2866.6429-.6429v-3.3214c0-.17677-.1446-.32141-.3214-.32141zm-7.39289 3.96431v-1.0715c0-.1767-.14464-.3214-.32142-.3214h-2.25v-2.25c0-.17677-.14465-.32141-.32143-.32141h-1.07143c-.17679 0-.32143.14464-.32143.32141v3.3214c0 .3563.28661.6429.64286.6429h3.32143c.17678 0 .32142-.1446.32142-.3214z" fill="url(#a)"/></svg>

<svg width="16" height="16" viewBox="0 0 16 16" fill="none" xmlns="http://www.w3.org/2000/svg">
<path d="M2 5.96429V2.64286C2 2.28661 2.28661 2 2.64286 2H5.96429C6.14107 2 6.28571 2.14464 6.28571 2.32143V3.39286C6.28571 3.56964 6.14107 3.71429 5.96429 3.71429H3.71429V5.96429C3.71429 6.14107 3.56964 6.28571 3.39286 6.28571H2.32143C2.14464 6.28571 2 6.14107 2 5.96429ZM9.71429 2.32143V3.39286C9.71429 3.56964 9.85893 3.71429 10.0357 3.71429H12.2857V5.96429C12.2857 6.14107 12.4304 6.28571 12.6071 6.28571H13.6786C13.8554 6.28571 14 6.14107 14 5.96429V2.64286C14 2.28661 13.7134 2 13.3571 2H10.0357C9.85893 2 9.71429 2.14464 9.71429 2.32143ZM13.6786 9.71429H12.6071C12.4304 9.71429 12.2857 9.85893 12.2857 10.0357V12.2857H10.0357C9.85893 12.2857 9.71429 12.4304 9.71429 12.6071V13.6786C9.71429 13.8554 9.85893 14 10.0357 14H13.3571C13.7134 14 14 13.7134 14 13.3571V10.0357C14 9.85893 13.8554 9.71429 13.6786 9.71429ZM6.28571 13.6786V12.6071C6.28571 12.4304 6.14107 12.2857 5.96429 12.2857H3.71429V10.0357C3.71429 9.85893 3.56964 9.71429 3.39286 9.71429H2.32143C2.14464 9.71429 2 9.85893 2 10.0357V13.3571C2 13.7134 2.28661 14 2.64286 14H5.96429C6.14107 14 6.28571 13.8554 6.28571 13.6786Z" fill="url(#paint0_linear)"/>
<defs>
<linearGradient id="paint0_linear" x1="8" y1="2" x2="8" y2="14" gradientUnits="userSpaceOnUse">
<stop stop-color="#5E7DF7"/>
<stop offset="1" stop-color="#A468FC"/>
</linearGradient>
</defs>
</svg>
